svg/u1f3f0.svg

<svg viewBox="0 0 128 128" xmlns="http://www.w3.org/2000/svg">
  <rect height="50.3" fill="#ACA299" width="38.64" x="44.48" y="30.83"/>
  <path d="M64.51,6.24c-3.02,0.04-4.28,4.2-11.2,13.39c-5.37,7.14-8.46,9.76-8.79,10.93 c-0.17,0.62-0.08,0.96-0.08,0.96h38.7c0,0,0.1-0.79-0.27-1.37c-0.25-0.38-4.76-6.17-7.57-10.05C67.84,9.82,67.32,6.21,64.51,6.24z" fill="#A62714"/>
  <path d="M57.89,40.95c0,0,0,10.69,0,11.03c0,1.01-0.39,1.79,1.12,1.68c0.9-0.07,10.86,0,10.86,0 s0-11.31-0.06-12.6c-0.06-1.29-1.51-5.21-5.99-5.15C59.34,35.97,57.94,39.21,57.89,40.95z" fill="#2F2F2F"/>
  <path d="M44.47,53.19l38.65,0.04l0,4.21l-5.25,2.21l-5.04,4.03l-6.38-4.2c0,0-4.53,0-4.76,0.17 c-0.22,0.17-5.04,4.37-5.04,4.37l-5.37-4.42l-6.8-1.58C44.48,58.01,44.44,53.23,44.47,53.19z" fill="#D9D1C6"/>
  <path d="M44.47,60.74c0,0,4.26-0.55,6.59,0.42c2.69,1.12,5.37,5.15,5.77,5.15c0.85-0.01,2.6-5.2,7.78-5.6 c5.15-0.4,7.22,6.1,8.34,6.16c0.85,0.04,2.82-4.66,5.15-5.93c2.42-1.32,5.02-1.35,5.02-1.35l0-2.17c0,0-3.19-0.31-5.8,0.89 c-2.94,1.36-3.98,4.09-4.47,4.12c-0.35,0.02-2.92-4.41-8.46-4.23c-5.21,0.17-7.14,3.95-7.57,3.96c-0.19,0.01-2.27-2.48-4.86-3.51 c-3.08-1.23-7.48-0.66-7.48-0.66L44.47,60.74z" fill="#6F6B67"/>
  <path d="M37.24,82.5l-25.83,2.15c0,0-0.22,36.48-0.32,37.55s0.32,2.15,1.61,2.15s102.33-0.43,103.41-0.43 s1.83-1.51,1.83-2.8s0-34.22,0-34.22l-16.89-4.3L37.24,82.5z" fill="#ACA299"/>
  <path d="M29.96,84.77h68.35l-2.86-10.54c0,0-13.76-0.1-14.47-0.1c-0.59,0-0.97,0.49-0.96,1.22 c0.01,0.53-0.01,4.05-0.01,4.05l-9.17-0.02c0,0,0-3.3,0-3.83c0-0.92-0.56-1.39-1.58-1.36c-0.79,0.02-8.88-0.03-9.5,0 c-0.91,0.04-1.01,0.58-1.01,1.43c0,0.85-0.03,3.6-0.03,3.6l-9.9-0.01c0,0-0.03-3.26-0.03-3.72c0-0.45-0.23-1.02-1.35-1.07 c-1.13-0.06-14.27,0-14.27,0L29.96,84.77z" fill="#E5DDD2"/>
  <path d="M109.01,55.38l-16.14,5.81c0,0,0.15,3.05,0.73,8.16c0.38,3.37,1.23,7.41,1.23,7.41l15.35,3.96 l11.84-6.43c0,0,0.8-3.65,1.18-8.04c0.26-2.97,0.46-5.36,0.28-5.51C121.61,59.22,109.01,55.38,109.01,55.38z" fill="#ACA299"/>
  <path d="M4.99,62.32c0,0,0.36,3.99,0.67,6.73c0.31,2.74,0.9,5.92,0.9,5.92l14.94,3.45l12.37-3.62 c0,0,0.49-3.48,0.67-6.89c0.17-3.24,0.1-5.54,0.01-5.61c-0.27-0.22-14.24-6.44-14.24-6.44L4.99,62.32z" fill="#ACA299"/>
  <path d="M6.55,74.95l27.33-0.16c0,0-0.62,4.24-0.98,6.06c-0.36,1.81-1.19,3.93-1.19,3.93l-0.01,39.5 l-2.87,0.01l0-36.02H11.38c0,0-2.58-2.22-3.6-6.67C6.9,77.8,6.55,74.95,6.55,74.95z" fill="#89847E"/>
  <path d="M94.3,74.13l27.71,0.17c0,0-0.62,3.24-1.78,7.04c-0.76,2.5-2.26,6.9-2.26,6.9H99.66l-0.33,35.75 L96.9,124l0.18-37.82c0,0-0.91-3.89-1.64-6.64C94.85,77.27,94.3,74.13,94.3,74.13z" fill="#89847E"/>
  <path d="M98.91,58.8c0,0,0,1.94,0,4.54c0,2.6,0.02,4.38,0.07,5.81c0.03,1.13,0.67,1.78,1.67,1.74 c1.13-0.05,1.27-1,1.27-1.67s-0.13-10.48-0.13-10.48L98.91,58.8z" fill="#2E2E2F"/>
  <path d="M107.26,58.75c0,0,0.02,9.75,0,10.48c-0.02,1,0.54,1.8,1.45,1.8c0.91,0,1.45-0.87,1.39-1.67 s0.12-10.95,0.12-10.95L107.26,58.75z" fill="#2E2E2F"/>
  <path d="M116.03,59.26c0,0-0.07,9.62-0.07,10.15s0.13,1.69,1.4,1.6c1.13-0.08,1.27-1.27,1.27-2.07 c0-0.8,0.06-9.61,0.06-9.61L116.03,59.26z" fill="#2E2E2F"/>
  <path d="M107.05,38.26c0,0-0.09-13.4-0.09-13.94c0-0.53,0.66-1.22,1.54-1c2.22,0.56,4.73,2.07,8.24,2.64 c3.51,0.57,7.81-0.13,8.48-0.13c0.67,0,1.4,0.93,0.13,1.6c-1.27,0.67-3.36,2.91-7.84,4.18c-3.92,1.11-5.51,1.29-7.09,2.07 c-0.66,0.33-0.33,4.31-0.33,4.31L107.05,38.26z" fill="#FE2A22"/>
  <path d="M92.87,61.19c0,0,4.97-1.38,15.65-1.24s14.95,0.8,14.95,0.8s-0.33-1.13-1.33-2.07 s-6.54-6.74-9.48-14.49c-1.61-4.23-1.51-7.82-4.41-7.75c-2.54,0.07-2.67,2.47-4.47,7.61c-1.8,5.14-2.88,6.51-4.81,9.25 c-1.94,2.74-3.82,4.26-4.84,5.44C92.83,60.27,92.87,61.19,92.87,61.19z" fill="#A62714"/>
  <path d="M9.51,60.56c0,0,0.21,8.84,0.25,9.56c0.04,0.63,0.34,1.61,1.48,1.57c1.14-0.04,1.23-1.27,1.23-1.61 c0-0.34-0.25-9.99-0.25-9.99L9.51,60.56z" fill="#2E2E2F"/>
  <path d="M18.87,60.62c0,0,0.06,8.8,0.09,9.35c0.04,0.8,0.35,1.73,1.47,1.73s1.43-1.06,1.39-1.73 c-0.03-0.51-0.04-9.39-0.04-9.39L18.87,60.62z" fill="#2E2E2F"/>
  <path d="M27.86,60.69c0,0,0.05,8.7,0.05,9.29c0,0.8,0.34,1.7,1.33,1.7c1.03,0,1.35-0.63,1.39-1.61 s0.04-9.22,0.04-9.22L27.86,60.69z" fill="#2E2E2F"/>
  <path d="M18.12,39.66c0,0-0.05-13.84-0.04-14.35c0.03-2.12,2.89-0.52,3.09-0.47c2.15,0.55,4.87,1.4,7.32,1.82 c2.45,0.42,8,0.89,8.51,0.93c0.51,0.04,0.93,0.76,0.08,1.18c-0.85,0.42-7.45,3.22-9.99,4.23s-6.14,1.65-6.14,1.65l-0.04,5.5 L18.12,39.66z" fill="#FF2A23"/>
  <path d="M19.55,37.85c-2.84,0.03-4.52,8.35-7.18,13.26s-5.46,8.16-6.26,8.9c-1.4,1.3-1.11,2.31-1.11,2.31 s6.37-0.79,14.95-0.85c8.58-0.06,14.66,0.94,14.66,0.94s-0.16-1.35-1.23-2.54c-0.73-0.81-3.87-4.16-6.39-9.03 C24.21,45.46,22.47,37.82,19.55,37.85z" fill="#A62714"/>
  <path d="M48.17,124.21c0,0-0.38-15.61,1.79-20.96c2.31-5.69,5.57-8.76,7.75-11.13 c2.19-2.38,5.88-5.63,7.07-5.75c1.21-0.13,5.07,3.56,8.07,6.69c2.85,2.97,6.44,6.13,7.94,11.44c1.12,3.96,0.77,19.57,0.77,19.57 L48.17,124.21z" fill="#6F6A67"/>
  <path d="M64.79,90.12c-0.57,0-10.26,7.98-12.05,15.18c-1.43,5.78-1.15,18.9-1.15,18.9l26.97-0.12 c0,0,0.75-15.14-1.16-19.78C74.41,97.03,65.36,90.12,64.79,90.12z" fill="#89847E"/>
  <path d="M55.69,124.19c0,0-0.16-15.03-0.09-17.02c0.07-2,2.85-7.98,9.41-7.84c6.56,0.14,9.41,5.63,9.48,7.84 s0,16.93,0,16.93L55.69,124.19z" fill="#6E4D42"/>
  <path d="M58.23,124.18l2.21-0.01l0-23.8c0,0-0.9,0.52-1.35,0.9c-0.43,0.36-0.87,0.8-0.87,0.8 S58.23,124.17,58.23,124.18z" fill="#8F6D61"/>
  <path d="M64.26,124.15l-0.01-24.81c0,0,0.68-0.03,0.99-0.02c0.42,0.02,0.97,0.1,0.97,0.1l0.16,24.72 L64.26,124.15z" fill="#8F6D61"/>
  <path d="M70.49,101.02c0,0,0.63,0.43,1.1,0.86c0.41,0.38,0.83,0.88,0.83,0.88l0.01,21.35l-2.08,0.01 L70.49,101.02z" fill="#8F6D61"/>
  <path d="M84.53,107.25v-3.62c0,0,6.48-0.04,6.56,0.06s0.06,3.58,0.06,3.58L84.53,107.25z" fill="#D8D0C5"/>
  <path d="M102.41,111.14c-0.17,0.24-0.23,3.65-0.02,3.71c0.21,0.06,6.18,0,6.18,0v-3.86 C108.57,110.98,102.62,110.85,102.41,111.14z" fill="#D8D0C5"/>
  <path d="M49.49,94.62v3.62c0,0-6.49,0.16-6.65-0.04c-0.16-0.2-0.14-3.45-0.02-3.53S49.49,94.62,49.49,94.62z" fill="#D8D0C5"/>
  <path d="M38.81,101.28c0,0,6.41-0.04,6.53,0.04s0.1,3.61,0.1,3.61s-6.45,0.1-6.57-0.02 C38.75,104.79,38.81,101.28,38.81,101.28z" fill="#D8D0C5"/>
  <path d="M19.43,92.31c0,0-0.15,3.38,0.06,3.52c0.2,0.15,6.67,0.17,6.81,0.06s0.12-3.49,0-3.58 C26.19,92.23,19.43,92.31,19.43,92.31z" fill="#D8D0C5"/>
</svg>

<svg viewBox="0 0 128 128" xmlns="http://www.w3.org/2000/svg">
  <defs/>
  <path d="M44.48,30.83 L83.12,30.83 L83.12,81.13 L44.48,81.13 L44.48,30.83 Z" fill="#ACA299"/>
  <path d="M64.51,6.24 C61.49,6.28 60.23,10.44 53.31,19.63 C47.94,26.77 44.85,29.39 44.52,30.56 C44.35,31.18 44.44,31.52 44.44,31.52 L83.14,31.52 C83.14,31.52 83.24,30.73 82.87,30.15 C82.62,29.77 78.11,23.98 75.3,20.1 C67.84,9.82 67.32,6.21 64.51,6.24 Z" fill="#A62714"/>
  <path d="M57.89,40.95 C57.89,40.95 57.89,51.64 57.89,51.98 C57.89,52.99 57.5,53.77 59.01,53.66 C59.91,53.59 69.87,53.66 69.87,53.66 C69.87,53.66 69.87,42.35 69.81,41.06 C69.75,39.77 68.3,35.85 63.82,35.91 C59.34,35.97 57.94,39.21 57.89,40.95 Z" fill="#2F2F2F"/>
  <path d="M44.47,53.19 L83.12,53.23 L83.12,57.44 L77.87,59.65 L72.83,63.68 L66.45,59.48 C66.45,59.48 61.92,59.48 61.69,59.65 C61.47,59.82 56.65,64.02 56.65,64.02 L51.28,59.6 L44.48,58.02 C44.48,58.01 44.44,53.23 44.47,53.19 Z" fill="#D9D1C6"/>
  <path d="M44.47,60.74 C44.47,60.74 48.73,60.19 51.06,61.16 C53.75,62.28 56.43,66.31 56.83,66.31 C57.68,66.3 59.43,61.11 64.61,60.71 C69.76,60.31 71.83,66.81 72.95,66.87 C73.8,66.91 75.77,62.21 78.1,60.94 C80.52,59.62 83.12,59.59 83.12,59.59 L83.12,57.42 C83.12,57.42 79.93,57.11 77.32,58.31 C74.38,59.67 73.34,62.4 72.85,62.43 C72.5,62.45 69.93,58.02 64.39,58.2 C59.18,58.37 57.25,62.15 56.82,62.16 C56.63,62.17 54.55,59.68 51.96,58.65 C48.88,57.42 44.48,57.99 44.48,57.99 L44.47,60.74 Z" fill="#6F6B67"/>
  <path d="M37.24,82.5 L11.41,84.65 C11.41,84.65 11.19,121.13 11.09,122.2 C10.99,123.27 11.41,124.35 12.7,124.35 C13.99,124.35 115.03,123.92 116.11,123.92 C117.19,123.92 117.94,122.41 117.94,121.12 C117.94,119.83 117.94,86.9 117.94,86.9 L101.05,82.6 L37.24,82.5 Z" fill="#ACA299"/>
  <path d="M29.96,84.77 L98.31,84.77 L95.45,74.23 C95.45,74.23 81.69,74.13 80.98,74.13 C80.39,74.13 80.01,74.62 80.02,75.35 C80.03,75.88 80.01,79.4 80.01,79.4 L70.84,79.38 C70.84,79.38 70.84,76.08 70.84,75.55 C70.84,74.63 70.28,74.16 69.26,74.19 C68.47,74.21 60.38,74.16 59.76,74.19 C58.85,74.23 58.75,74.77 58.75,75.62 C58.75,76.47 58.72,79.22 58.72,79.22 L48.82,79.21 C48.82,79.21 48.79,75.95 48.79,75.49 C48.79,75.04 48.56,74.47 47.44,74.42 C46.31,74.36 33.17,74.42 33.17,74.42 L29.96,84.77 Z" fill="#E5DDD2"/>
  <path d="M109.01,55.38 L92.87,61.19 C92.87,61.19 93.02,64.24 93.6,69.35 C93.98,72.72 94.83,76.76 94.83,76.76 L110.18,80.72 L122.02,74.29 C122.02,74.29 122.82,70.64 123.2,66.25 C123.46,63.28 123.66,60.89 123.48,60.74 C121.61,59.22 109.01,55.38 109.01,55.38 Z" fill="#ACA299"/>
  <path d="M4.99,62.32 C4.99,62.32 5.35,66.31 5.66,69.05 C5.97,71.79 6.56,74.97 6.56,74.97 L21.5,78.42 L33.87,74.8 C33.87,74.8 34.36,71.32 34.54,67.91 C34.71,64.67 34.64,62.37 34.55,62.3 C34.28,62.08 20.31,55.86 20.31,55.86 L4.99,62.32 Z" fill="#ACA299"/>
  <path d="M6.55,74.95 L33.88,74.79 C33.88,74.79 33.26,79.03 32.9,80.85 C32.54,82.66 31.71,84.78 31.71,84.78 L31.7,124.28 L28.83,124.29 L28.83,88.27 L11.38,88.27 C11.38,88.27 8.8,86.05 7.78,81.6 C6.9,77.8 6.55,74.95 6.55,74.95 Z" fill="#89847E"/>
  <path d="M94.3,74.13 L122.01,74.3 C122.01,74.3 121.39,77.54 120.23,81.34 C119.47,83.84 117.97,88.24 117.97,88.24 L99.66,88.24 L99.33,123.99 L96.9,124 L97.08,86.18 C97.08,86.18 96.17,82.29 95.44,79.54 C94.85,77.27 94.3,74.13 94.3,74.13 Z" fill="#89847E"/>
  <path d="M98.91,58.8 C98.91,58.8 98.91,60.74 98.91,63.34 C98.91,65.94 98.93,67.72 98.98,69.15 C99.01,70.28 99.65,70.93 100.65,70.89 C101.78,70.84 101.92,69.89 101.92,69.22 C101.92,68.55 101.79,58.74 101.79,58.74 L98.91,58.8 Z" fill="#2E2E2F"/>
  <path d="M107.26,58.75 C107.26,58.75 107.28,68.5 107.26,69.23 C107.24,70.23 107.8,71.03 108.71,71.03 C109.62,71.03 110.16,70.16 110.1,69.36 C110.04,68.56 110.22,58.41 110.22,58.41 L107.26,58.75 Z" fill="#2E2E2F"/>
  <path d="M116.03,59.26 C116.03,59.26 115.96,68.88 115.96,69.41 C115.96,69.94 116.09,71.1 117.36,71.01 C118.49,70.93 118.63,69.74 118.63,68.94 C118.63,68.14 118.69,59.33 118.69,59.33 L116.03,59.26 Z" fill="#2E2E2F"/>
  <path d="M107.05,38.26 C107.05,38.26 106.96,24.86 106.96,24.32 C106.96,23.79 107.62,23.1 108.5,23.32 C110.72,23.88 113.23,25.39 116.74,25.96 C120.25,26.53 124.55,25.83 125.22,25.83 C125.89,25.83 126.62,26.76 125.35,27.43 C124.08,28.1 121.99,30.34 117.51,31.61 C113.59,32.72 112,32.9 110.42,33.68 C109.76,34.01 110.09,37.99 110.09,37.99 L107.05,38.26 Z" fill="#FE2A22"/>
  <path d="M92.87,61.19 C92.87,61.19 97.84,59.81 108.52,59.95 C119.2,60.09 123.47,60.75 123.47,60.75 C123.47,60.75 123.14,59.62 122.14,58.68 C121.14,57.74 115.6,51.94 112.66,44.19 C111.05,39.96 111.15,36.37 108.25,36.44 C105.71,36.51 105.58,38.91 103.78,44.05 C101.98,49.19 100.9,50.56 98.97,53.3 C97.03,56.04 95.15,57.56 94.13,58.74 C92.83,60.27 92.87,61.19 92.87,61.19 Z" fill="#A62714"/>
  <path d="M9.51,60.56 C9.51,60.56 9.72,69.4 9.76,70.12 C9.8,70.75 10.1,71.73 11.24,71.69 C12.38,71.65 12.47,70.42 12.47,70.08 C12.47,69.74 12.22,60.09 12.22,60.09 L9.51,60.56 Z" fill="#2E2E2F"/>
  <path d="M18.87,60.62 C18.87,60.62 18.93,69.42 18.96,69.97 C19,70.77 19.31,71.7 20.43,71.7 C21.55,71.7 21.86,70.64 21.82,69.97 C21.79,69.46 21.78,60.58 21.78,60.58 L18.87,60.62 Z" fill="#2E2E2F"/>
  <path d="M27.86,60.69 C27.86,60.69 27.91,69.39 27.91,69.98 C27.91,70.78 28.25,71.68 29.24,71.68 C30.27,71.68 30.59,71.05 30.63,70.07 C30.67,69.09 30.67,60.85 30.67,60.85 L27.86,60.69 Z" fill="#2E2E2F"/>
  <path d="M18.12,39.66 C18.12,39.66 18.07,25.82 18.08,25.31 C18.11,23.19 20.97,24.79 21.17,24.84 C23.32,25.39 26.04,26.24 28.49,26.66 C30.94,27.08 36.49,27.55 37,27.59 C37.51,27.63 37.93,28.35 37.08,28.77 C36.23,29.19 29.63,31.99 27.09,33 C24.55,34.01 20.95,34.65 20.95,34.65 L20.91,40.15 L18.12,39.66 Z" fill="#FF2A23"/>
  <path d="M19.55,37.85 C16.71,37.88 15.03,46.2 12.37,51.11 C9.71,56.02 6.91,59.27 6.11,60.01 C4.71,61.31 5,62.32 5,62.32 C5,62.32 11.37,61.53 19.95,61.47 C28.53,61.41 34.61,62.41 34.61,62.41 C34.61,62.41 34.45,61.06 33.38,59.87 C32.65,59.06 29.51,55.71 26.99,50.84 C24.21,45.46 22.47,37.82 19.55,37.85 Z" fill="#A62714"/>
  <path d="M48.17,124.21 C48.17,124.21 47.79,108.6 49.96,103.25 C52.27,97.56 55.53,94.49 57.71,92.12 C59.9,89.74 63.59,86.49 64.78,86.37 C65.99,86.24 69.85,89.93 72.85,93.06 C75.7,96.03 79.29,99.19 80.79,104.5 C81.91,108.46 81.56,124.07 81.56,124.07 L48.17,124.21 Z" fill="#6F6A67"/>
  <path d="M64.79,90.12 C64.22,90.12 54.53,98.1 52.74,105.3 C51.31,111.08 51.59,124.2 51.59,124.2 L78.56,124.08 C78.56,124.08 79.31,108.94 77.4,104.3 C74.41,97.03 65.36,90.12 64.79,90.12 Z" fill="#89847E"/>
  <path d="M55.69,124.19 C55.69,124.19 55.53,109.16 55.6,107.17 C55.67,105.17 58.45,99.19 65.01,99.33 C71.57,99.47 74.42,104.96 74.49,107.17 C74.56,109.38 74.49,124.1 74.49,124.1 L55.69,124.19 Z" fill="#6E4D42"/>
  <path d="M58.23,124.18 L60.44,124.17 L60.44,100.37 C60.44,100.37 59.54,100.89 59.09,101.27 C58.66,101.63 58.22,102.07 58.22,102.07 C58.22,102.07 58.23,124.17 58.23,124.18 Z" fill="#8F6D61"/>
  <path d="M64.26,124.15 L64.25,99.34 C64.25,99.34 64.93,99.31 65.24,99.32 C65.66,99.34 66.21,99.42 66.21,99.42 L66.37,124.14 L64.26,124.15 Z" fill="#8F6D61"/>
  <path d="M70.49,101.02 C70.49,101.02 71.12,101.45 71.59,101.88 C72,102.26 72.42,102.76 72.42,102.76 L72.43,124.11 L70.35,124.12 L70.49,101.02 Z" fill="#8F6D61"/>
  <path d="M84.53,107.25 L84.53,103.63 C84.53,103.63 91.01,103.59 91.09,103.69 C91.17,103.79 91.15,107.27 91.15,107.27 L84.53,107.25 Z" fill="#D8D0C5"/>
  <path d="M102.41,111.14 C102.24,111.38 102.18,114.79 102.39,114.85 C102.6,114.91 108.57,114.85 108.57,114.85 L108.57,110.99 C108.57,110.98 102.62,110.85 102.41,111.14 Z" fill="#D8D0C5"/>
  <path d="M49.49,94.62 L49.49,98.24 C49.49,98.24 43,98.4 42.84,98.2 C42.68,98 42.7,94.75 42.82,94.67 C42.94,94.59 49.49,94.62 49.49,94.62 Z" fill="#D8D0C5"/>
  <path d="M38.81,101.28 C38.81,101.28 45.22,101.24 45.34,101.32 C45.46,101.4 45.44,104.93 45.44,104.93 C45.44,104.93 38.99,105.03 38.87,104.91 C38.75,104.79 38.81,101.28 38.81,101.28 Z" fill="#D8D0C5"/>
  <path d="M19.43,92.31 C19.43,92.31 19.28,95.69 19.49,95.83 C19.69,95.98 26.16,96 26.3,95.89 C26.44,95.78 26.42,92.4 26.3,92.31 C26.19,92.23 19.43,92.31 19.43,92.31 Z" fill="#D8D0C5"/>
</svg>
